src/assets-renderer/cinnamon/assets/checkbox-checked-focused-dark.svg

<svg version="1.1" viewBox="0 0 24 22" xmlns="http://www.w3.org/2000/svg"><path d="m3.3379 1.9941c-1.8451 0-3.3379 1.5227-3.3379 3.3848v13.242c0 1.862 1.4928 3.3848 3.3379 3.3848h13.332c1.8451 0 3.3379-1.5227 3.3379-3.3848v-13.242c2e-6 -1.862-1.4928-3.3848-3.3379-3.3848h-13.332z" color="#000000" color-rendering="auto" dominant-baseline="auto" fill="#555e70" image-rendering="auto" shape-rendering="auto" solid-color="#000000" stop-color="#000000"/><path d="m3.3379 1.9941c-1.8451 0-3.3379 1.5227-3.3379 3.3848v13.242c0 1.862 1.4928 3.3848 3.3379 3.3848h13.332c1.8451 0 3.3379-1.5227 3.3379-3.3848v-13.242c1e-6 -1.862-1.4928-3.3848-3.3379-3.3848zm0 1h13.332c1.2997 0 2.3379 1.0509 2.3379 2.3848v13.242c0 1.3339-1.0382 2.3848-2.3379 2.3848h-13.332c-1.2997 0-2.3379-1.0509-2.3379-2.3848v-13.242c0-1.3339 1.0382-2.3848 2.3379-2.3848z" color="#000000" color-rendering="auto" dominant-baseline="auto" image-rendering="auto" opacity=".5" shape-rendering="auto" solid-color="#000000" stop-color="#000000"/><rect x="-.20001" y=".22002" width="21.944" height="21.944" color="#000000" fill="none"/><path d="m19.15 3.17-9.5602 9.3674-2.5634-2.5634-2.9285-0.0214 0.0153 2.3264 4.022 4.0221c0.80341 0.80309 2.1056 0.80309 2.9091 0l10.95-11.058 3e-3 -2.1502z" color="#000000" fill="#fff" style="text-indent:0;text-transform:none"/></svg>

<svg viewBox="0 0 24 22">
  <path fill="#181818" d="M3.338 1.994C1.493 1.994 0 3.517 0 5.38v13.24c0 1.862 1.493 3.385 3.338 3.385H16.67c1.845 0 3.338-1.523 3.338-3.385V5.379c0-1.862-1.493-3.385-3.338-3.385H3.338z" color="#555"/>
  <path d="M3.338 1.994C1.493 1.994 0 3.517 0 5.38v13.24c0 1.862 1.493 3.385 3.338 3.385H16.67c1.845 0 3.338-1.523 3.338-3.385V5.379c0-1.862-1.493-3.385-3.338-3.385zm0 1H16.67c1.3 0 2.338 1.051 2.338 2.385V18.62c0 1.334-1.038 2.385-2.338 2.385H3.338C2.038 21.006 1 19.955 1 18.62V5.379c0-1.334 1.038-2.385 2.338-2.385z" color="#0c0c0c" opacity=".5"/>
  <path fill="none" d="M-.2.22h21.944v21.944H-.2z" color="#1c1c1c"/>
  <path fill="#d1d1d1" d="m19.15 3.17-9.56 9.367-2.564-2.563-2.928-.021.015 2.326 4.022 4.022a2.057 2.057 0 0 0 2.91 0l10.95-11.058.002-2.15z" color="#1c1c1c" style="text-indent:0;text-transform:none"/>
</svg>
